svg/star_medium_outline.svg

<?xml version="1.0" encoding="UTF-8" standalone="no"?>
<!-- Created with Inkscape (http://www.inkscape.org/) -->
<svg id="svg8" xmlns:rdf="http://www.w3.org/1999/02/22-rdf-syntax-ns#" xmlns="http://www.w3.org/2000/svg" xmlns:osb="http://www.openswatchbook.org/uri/2009/osb" height="48" width="48" version="1.1" xmlns:cc="http://creativecommons.org/ns#" viewBox="0 0 12.7 12.7" xmlns:dc="http://purl.org/dc/elements/1.1/">
 <title id="title4753">UIO-icon</title>
 <metadata id="metadata5">
  <rdf:RDF>
   <cc:Work rdf:about="">
    <dc:format>image/svg+xml</dc:format>
    <dc:type rdf:resource="http://purl.org/dc/dcmitype/StillImage"/>
    <dc:title>UIO-icon</dc:title>
    <dc:creator>
     <cc:Agent>
      <dc:title>Joaquín Urbano</dc:title>
     </cc:Agent>
    </dc:creator>
    <dc:rights>
     <cc:Agent>
      <dc:title>GPL</dc:title>
     </cc:Agent>
    </dc:rights>
   </cc:Work>
  </rdf:RDF>
 </metadata>
 <g id="layer1" transform="translate(0,-284.3)" fill="#333">
  <path id="path899" d="m24.025 8-4.966 10.516-11.059 1.664 7.984 8.211-1.912 11.564 9.899-5.439 9.877 5.484-1.864-11.574 8.016-8.176-11.053-1.713zm-0.003906 1.1855 4.5938 9.832 10.311 1.5977l-7.479 7.626 1.741 10.797-9.215-5.117-9.237 5.076 1.785-10.789-7.4487-7.662 10.319-1.551z" fill-rule="evenodd" transform="matrix(.26458 0 0 .26458 0 284.3)"/>
 </g>
</svg>

<svg width="48" height="48" viewBox="0 0 48 48" fill="none" xmlns="http://www.w3.org/2000/svg">
<path fill-rule="evenodd" clip-rule="evenodd" d="M24.0248 8L19.0589 18.5159L8 20.1798L15.9839 28.3907L14.0719 39.9546L23.9708 34.5157L33.8477 39.9996L31.9837 28.4257L39.9996 20.2498L28.9467 18.5369L24.0248 8ZM24.0209 9.18549L28.6146 19.0174L38.9255 20.615L31.4466 28.2409L33.1876 39.0378L23.9727 33.9209L14.7358 38.9968L16.5208 28.2079L9.07218 20.546L19.3911 18.9951L24.0209 9.18549Z" fill="#333333"/>
</svg>
